!!!OTL: 553. Lebensgenuss. / Aeltere Lesart. (1801.)
!!!ODT: 1801
!!!ARE: Europa, Mitteleuropa, Deutschland
!!!SCT: B0553A
!!!YEM: Copyright 1995, estate of Helmut Schaffrath.
**kern
*ICvox
*Ivox
*M6/8
*k[b-]
*F:
{8c
=1
4f
8f
8aL
8gJ
8f
=2
(4f
8d)
4d}
{8d
=3
4c
8c
8cL
8dJ
8e
=4
4f
8r
4r}
{8c
=5
4f
8f
8aL
8gJ
8f
=6
(4f
8d)
4d}
{8d
=7
4c
8c
8cL
8dJ
8e
=8
(<4f
8a
4cc)}
{8cc
=9
4dd
8dd
(8ffL
8eeJ)
8dd
=10
4.cc
8a
8r}
{8a
=11
(8gL
8b-J)
8a
8gL
8fJ
8e
=12
4f
8r
4r}
==
!!!AGN: Studenten -, Trink - Lied
!!!GTL: Studentenlieder
!!!ONB: ESAC (Essen Associative Code) Database: BOEHME
!!!AMT: compound duple
!!!AIN: vox
!!!EED: Helmut Schaffrath
!!!EEV: 1.0
!!!RDF**kern: < = below
!!!URL-scan: https://archive.org/details/BoehmeVtLieder1895/page/n441/mode/2up
!!!ENC: Anna Maria Matuszewska
!!!EEV: 2024/12/07
*-
